dist/svgs/crypto-icons/icons/btcd.svg

<?xml version="1.0" encoding="UTF-8" standalone="yes"?>
<svg xmlns="http://www.w3.org/2000/svg" xmlns:xlink="http://www.w3.org/1999/xlink" width="512px" height="512px" viewBox="0 0 384 384" version="1.1">
  <g id="surface1">
    <path style=" stroke:none;fill-rule:nonzero;fill:rgb(0%,0%,0%);fill-opacity:1;" d="M 35.757812 54.640625 C 35.757812 54.640625 83.574219 0.289062 179.613281 0.289062 C 275.652344 0.289062 373.734375 91.421875 373.734375 197.269531 C 373.734375 303.113281 289.546875 383.621094 198.414062 383.621094 C 107.277344 383.621094 11.851562 317.824219 11.851562 212.390625 C 11.851562 106.949219 104.621094 63.21875 157.953125 64.449219 C 213.109375 65.71875 267.683594 110.421875 274.015625 160.894531 C 279.550781 205.007812 254.675781 238.683594 243.503906 249.035156 C 232.332031 259.382812 201.003906 273.554688 173.214844 266.199219 C 145.421875 258.839844 132.347656 237.042969 129.894531 225.597656 C 127.441406 214.15625 125.832031 187.566406 148.09375 174.777344 C 170.355469 161.984375 185.476562 177.925781 188.601562 185.820312 C 191.734375 193.722656 187.238281 205.441406 178.523438 207.484375 C 169.804688 209.527344 162.042969 206.386719 157.40625 202.4375 C 157.40625 202.4375 156.726562 221.480469 175.320312 224.75 C 193.917969 228.019531 205.460938 217.394531 210.875 209.015625 C 216.292969 200.636719 226.40625 173.257812 202.296875 147.816406 C 178.183594 122.378906 136.191406 124.214844 112.386719 141.792969 C 88.582031 159.363281 64.503906 191.824219 74.582031 239.226562 C 84.667969 286.636719 127.847656 330.777344 192.078125 331.320312 C 256.3125 331.863281 328.238281 280.652344 334.230469 195.914062 C 340.222656 111.179688 282.191406 51.242188 240.507812 33.804688 C 198.824219 16.363281 162.871094 9.230469 117.90625 17.992188 C 72.9375 26.757812 49.25 45.78125 35.757812 54.640625 Z M 35.757812 54.640625 "/>
  </g>
</svg>

<svg xmlns="http://www.w3.org/2000/svg" viewBox="0 0 384 384"><path d="M35.758 54.64S83.574.29 179.613.29c96.04 0 194.121 91.132 194.121 196.98 0 105.843-84.187 186.351-175.32 186.351-91.137 0-186.562-65.797-186.562-171.23 0-105.442 92.77-149.172 146.101-147.942 55.156 1.27 109.73 45.973 116.063 96.446 5.535 44.113-19.34 77.789-30.512 88.14-11.172 10.348-42.5 24.52-70.29 17.164-27.792-7.36-40.866-29.156-43.32-40.601-2.453-11.442-4.062-38.032 18.2-50.82 22.261-12.794 37.383 3.148 40.508 11.042 3.132 7.903-1.364 19.621-10.079 21.664-8.718 2.043-16.48-1.097-21.117-5.047 0 0-.68 19.043 17.914 22.313 18.598 3.27 30.14-7.355 35.555-15.734 5.418-8.38 15.531-35.758-8.578-61.2-24.113-25.437-66.106-23.601-89.91-6.023-23.805 17.57-47.883 50.031-37.805 97.434 10.086 47.41 53.266 91.55 117.496 92.093 64.234.543 136.16-50.668 142.152-135.406 5.993-84.734-52.039-144.672-93.722-162.11-41.684-17.44-77.637-24.574-122.602-15.812-44.969 8.766-68.656 27.79-82.148 36.649zm0 0"/></svg>
